X:32
T: ES RITTEN DREI REUTER ZUM THOR HINAUS
N: Z0033
O: Europa, Mitteleuropa, Deutschland
R: Sagen - Lied, Romanze
M: 6/8
L: 1/16
K: G
D2 | G2G2G2G2A2B2 | B2A2A2A4d2 | B6z4
D2 | G2G2G2G2A2B2 | B2A2A2A4d2 | B6z4
G2 | d2d2d2d3ed2 | c2c2c2c3d
c2 | B2B2B2d2c2B2 | A4A2A4
d2 | B3cB2A3GA2 | B6
d6 | B3cB2A3GA2 | G6z4

